app/component-library/components/Icons/Icon/assets/user-search.svg

<svg width="24" height="24" viewBox="0 0 24 24" fill="none" xmlns="http://www.w3.org/2000/svg">
<path fill-rule="evenodd" clip-rule="evenodd" d="M16.2812 7C16.2812 9.76142 14.0427 12 11.2812 12C8.51983 12 6.28125 9.76142 6.28125 7C6.28125 4.23858 8.51983 2 11.2812 2C14.0427 2 16.2812 4.23858 16.2812 7ZM2.28125 21.5C2.28125 17.36 6.36125 14 11.3713 14C12.7936 14 14.1411 14.2708 15.3414 14.7535C14.8318 15.4544 14.5312 16.3171 14.5312 17.25C14.5312 19.5972 16.434 21.5 18.7812 21.5C19.3744 21.5 19.9391 21.3785 20.452 21.159C20.4581 21.272 20.4613 21.3857 20.4613 21.5C20.4613 21.78 20.2413 22 19.9613 22H2.78125C2.50125 22 2.28125 21.78 2.28125 21.5Z" fill="currentColor"/>
<path fill-rule="evenodd" clip-rule="evenodd" d="M22.7812 17.25C22.7812 19.4591 20.9904 21.25 18.7812 21.25C16.5721 21.25 14.7812 19.4591 14.7812 17.25C14.7812 15.0409 16.5721 13.25 18.7812 13.25C20.9904 13.25 22.7812 15.0409 22.7812 17.25ZM19.9849 18.4537C20.1092 18.3294 20.3107 18.3294 20.435 18.4537L21.0063 19.025C21.1306 19.1493 21.1306 19.3508 21.0063 19.4751C20.882 19.5993 20.6805 19.5993 20.5563 19.4751L19.9849 18.9037C19.8606 18.7794 19.8606 18.5779 19.9849 18.4537ZM20.4379 17.0783C20.4379 18.0881 19.6193 18.9067 18.6096 18.9067C17.5998 18.9067 16.7812 18.0881 16.7812 17.0783C16.7812 16.0686 17.5998 15.25 18.6096 15.25C19.6193 15.25 20.4379 16.0686 20.4379 17.0783Z" fill="currentColor"/>
</svg>

<svg xmlns="http://www.w3.org/2000/svg" width="24" height="24" viewBox="0 0 24 24" fill="none"><path fill="currentColor" fill-rule="evenodd" d="M16.281 7a5 5 0 1 1-10 0 5 5 0 0 1 10 0Zm-14 14.5c0-4.14 4.08-7.5 9.09-7.5 1.423 0 2.77.27 3.97.754a4.25 4.25 0 0 0 5.11 6.405c.007.113.01.227.01.341 0 .28-.22.5-.5.5H2.781c-.28 0-.5-.22-.5-.5Z" clip-rule="evenodd"/><path fill="currentColor" fill-rule="evenodd" d="M22.781 17.25a4 4 0 1 1-8 0 4 4 0 0 1 8 0Zm-2.796 1.204a.318.318 0 0 1 .45 0l.571.571a.318.318 0 0 1-.45.45l-.571-.571a.318.318 0 0 1 0-.45Zm.453-1.376a1.828 1.828 0 1 1-3.657 0 1.828 1.828 0 0 1 3.657 0Z" clip-rule="evenodd"/></svg>
